X:1
T:The Old Rugged Cross
T:Text: George Bennard (1873-1958) Tune: George Bennard (1873-1958)
T:Irregular OLD RUGGED CROSS www.hymnary.org/text/on_a_hill_far_away_stood_an_old_rugged
T:The Old Rugged Cross
T:This hymn is in the public domain.  You may freely use this score for personal and congregational worship.  If you reproduce the score, please credit Hymnary.org as the source. 
T:This hymn is in the public domain.  You may freely use this score for personal and congregational worship.  If you reproduce the score, please credit Hymnary.org as the source. 
T:This hymn is in the public domain.  You may freely use this score for personal and congregational worship.  If you reproduce the score, please credit Hymnary.org as the source. 
Z:This hymn is in the public domain.  You may freely use this score for personal and congregational worship.  If you reproduce the score, please credit Hymnary.org as the source.
%%score ( 1 2 ) ( 3 4 )
L:1/8
M:6/8
K:Bb
V:1 treble nm="Piano" snm="Pno."
V:2 treble 
V:3 bass nm="Piano" snm="Pno."
V:4 bass 
V:1
 [B,D]/[CE]/ | [DF]2 [^C=E]/[CG]/ [DF]2 [DF]/[DF]/ | G>^FA [EG]2 [=EG]/-[EG]/ | %3
w: 3~In that|old rug- ged cross, stained with|blood so di- vine, a _|
w: 1~On a|hill far a- way stood an|old rug- ged cross, the _|
w: 2~O that|old rug- ged cross, so des-|pised by the world, has a|
 ([_E-A]>[EG])[DF] [CE][CF][CE] | [B,D]3- [B,D]2 [B,D]/[CE]/ | [DF]>[^C=E][CG] [DF]2 [DF]/[DF]/ | %6
w: won- and drous beau- ty I|see; _ for 'twas|on that old cross Je- sus|
w: em- blem of suf- fering and|shame; _ and I|love that old cross, where the|
w: won- drous at- trac- tion for|me; _ for the|dear Lamb of God left his|
 G>^FA [EG]2 [=EG]/-[EG]/ | A>GF [Ge][Fd][Ec] | [DB]3- [DB]2"^Refrain" [CA]/[DB]/ || %9
w: suf- fered and died, to his|par- don and sanc- ti- fy|me. * So I'll|
w: dear- est and best for a|world of lost sin- ners was|slain. * * *|
w: glo- ry a- bove to _|bear it to dark Cal- va-|ry. * * *|
 [Ec]>[Ec][Ec] | cBA | B3- B2 [FB]/[FA]/ | [EG]>[EG][EG] [GB][FA][EG] | [DF]3- [DF]2 [DF]/[DB]/ | %14
w: che- rish the|old rug- ged|cross, * till my|tro- phies at last I lay|down; _ I will|
w: |||||
w: |||||
 [Fd]>[Fd][Fd] ded | G3- G2 [Ge]/[Ge]/ | [Fd]>[Ec][DB] FAc | [DB]3- [DB]2 |] %18
w: cling to the old rug- ged|cross, _ and ex-|change it some day for a|crown. *|
w: ||||
w: ||||
V:2
 x | x6 | E>EE x3 | x6 | x6 | x6 | E>EE x3 | _E>EE x3 | x6 || x3 | E2 E | D^C_E D2 x | x6 | x6 | %14
 x x/ x3/2 (FG)F | EEE E2 x | x3 EEE | x5 |] %18
V:3
 [B,,F,]/[B,,F,]/ | [B,,B,]2 [B,,B,]/[B,,G,]/ [B,,B,]2 [B,,B,]/[B,,B,]/ | %2
w: ||
 [E,B,]>[E,A,][E,C] [E,B,]2 [C,C]/-[C,C]/ | ([F,-C]>[F,A,])[F,B,] A,A,F, | %4
w: ||
 [B,,F,]3- [B,,F,]2 [B,,F,]/[B,,F,]/ | [B,,B,]>[B,,B,][B,,G,] [B,,B,]2 [B,,B,]/[B,,B,]/ | %6
w: ||
 [E,B,]>[E,A,][E,C] [E,B,]2 [C,C]/-[C,C]/ | [F,C]>[F,B,][F,A,] [F,A,][F,B,][F,A,] | %8
w: ||
 [B,,B,]3- [B,,B,]2 F,/F,/ || [F,A,]>[F,A,][F,A,] | [F,A,]2 F, | %11
w: ||cross, the|
 [B,,F,][B,,=E,][B,,G,] [B,,F,]2 [D,B,]/[D,B,]/ | [E,B,]>[E,B,][E,B,] [E,B,][E,B,][E,B,] | %13
w: old rug- ged cross, * *||
 [B,,B,]3- [B,,B,]2 [B,,B,]/[B,,F,]/ | [B,,B,]>[B,,B,][B,,B,] [B,,B,]2 [B,,B,] | %15
w: |* * * cross, the|
 [E,B,][E,B,][E,B,] [E,B,]2 [E,B,]/[E,B,]/ | [F,B,]>[F,A,][F,B,] A,CF, | [B,,F,]3- [B,,F,]2 |] %18
w: old rug- ged cross. * *|||
V:4
 x | x6 | x6 | x3 F,F,F, | x6 | x6 | x6 | x6 | x5 F,/F,/ || x3 | x2 F, | x6 | x6 | x6 | x6 | x6 | %16
 x3 F,F,F, | x5 |] %18

